images/50457186.svg

<?xml version="1.0" encoding="UTF-8"?>
<svg xmlns="http://www.w3.org/2000/svg" xmlns:xlink="http://www.w3.org/1999/xlink" width="300pt" height="300pt" viewBox="0 0 300 300" version="1.1">
<defs>
<g>
<symbol overflow="visible" id="glyph0-0">
<path style="stroke:none;" d="M 0.453125 1.59375 L 0.453125 -6.34375 L 4.953125 -6.34375 L 4.953125 1.59375 Z M 0.953125 1.09375 L 4.453125 1.09375 L 4.453125 -5.84375 L 0.953125 -5.84375 Z M 0.953125 1.09375 "/>
</symbol>
<symbol overflow="visible" id="glyph0-1">
<path style="stroke:none;" d="M 3.546875 -5.953125 C 2.898438 -5.953125 2.382812 -5.710938 2 -5.234375 C 1.625 -4.753906 1.4375 -4.101562 1.4375 -3.28125 C 1.4375 -2.445312 1.625 -1.789062 2 -1.3125 C 2.382812 -0.832031 2.898438 -0.59375 3.546875 -0.59375 C 4.191406 -0.59375 4.703125 -0.832031 5.078125 -1.3125 C 5.453125 -1.789062 5.640625 -2.445312 5.640625 -3.28125 C 5.640625 -4.101562 5.453125 -4.753906 5.078125 -5.234375 C 4.703125 -5.710938 4.191406 -5.953125 3.546875 -5.953125 Z M 3.546875 -6.6875 C 4.460938 -6.6875 5.195312 -6.375 5.75 -5.75 C 6.300781 -5.132812 6.578125 -4.3125 6.578125 -3.28125 C 6.578125 -2.238281 6.300781 -1.410156 5.75 -0.796875 C 5.195312 -0.179688 4.460938 0.125 3.546875 0.125 C 2.617188 0.125 1.878906 -0.179688 1.328125 -0.796875 C 0.773438 -1.410156 0.5 -2.238281 0.5 -3.28125 C 0.5 -4.3125 0.773438 -5.132812 1.328125 -5.75 C 1.878906 -6.375 2.617188 -6.6875 3.546875 -6.6875 Z M 3.546875 -6.6875 "/>
</symbol>
<symbol overflow="visible" id="glyph0-2">
<path style="stroke:none;" d="M 0.890625 -6.5625 L 1.765625 -6.5625 L 1.765625 -3.875 L 5 -3.875 L 5 -6.5625 L 5.890625 -6.5625 L 5.890625 0 L 5 0 L 5 -3.125 L 1.765625 -3.125 L 1.765625 0 L 0.890625 0 Z M 0.890625 -6.5625 "/>
</symbol>
<symbol overflow="visible" id="glyph0-3">
<path style="stroke:none;" d="M 0.890625 -6.5625 L 2.078125 -6.5625 L 4.984375 -1.078125 L 4.984375 -6.5625 L 5.84375 -6.5625 L 5.84375 0 L 4.65625 0 L 1.75 -5.484375 L 1.75 0 L 0.890625 0 Z M 0.890625 -6.5625 "/>
</symbol>
</g>
</defs>
<g id="surface8613">
<rect x="0" y="0" width="300" height="300" style="fill:rgb(100%,100%,100%);fill-opacity:1;stroke:none;"/>
<path style="fill:none;stroke-width:1.2;stroke-linecap:butt;stroke-linejoin:miter;stroke:rgb(100%,0%,0%);stroke-opacity:1;stroke-miterlimit:10;" d="M 179.238281 186.464844 L 170.421875 179.160156 "/>
<path style="fill:none;stroke-width:1.2;stroke-linecap:butt;stroke-linejoin:miter;stroke:rgb(0%,0%,0%);stroke-opacity:1;stroke-miterlimit:10;" d="M 170.421875 179.160156 L 161.605469 171.851562 "/>
<path style="fill:none;stroke-width:1.2;stroke-linecap:butt;stroke-linejoin:miter;stroke:rgb(0%,0%,0%);stroke-opacity:1;stroke-miterlimit:10;" d="M 198.589844 174.210938 L 188.914062 180.339844 "/>
<path style="fill:none;stroke-width:1.2;stroke-linecap:butt;stroke-linejoin:miter;stroke:rgb(100%,0%,0%);stroke-opacity:1;stroke-miterlimit:10;" d="M 188.914062 180.339844 L 179.238281 186.464844 "/>
<path style=" stroke:none;fill-rule:nonzero;fill:rgb(100%,100%,100%);fill-opacity:1;" d="M 175.238281 180.964844 L 183.238281 180.964844 L 183.238281 191.964844 L 175.238281 191.964844 Z M 175.238281 180.964844 "/>
<g style="fill:rgb(100%,0%,0%);fill-opacity:1;">
  <use xlink:href="#glyph0-1" x="175.238281" y="189.62793"/>
</g>
<path style="fill:none;stroke-width:1.2;stroke-linecap:butt;stroke-linejoin:miter;stroke:rgb(0%,0%,0%);stroke-opacity:1;stroke-miterlimit:10;" d="M 161.605469 171.851562 L 170.058594 150.5625 "/>
<path style="fill:none;stroke-width:1.2;stroke-linecap:butt;stroke-linejoin:miter;stroke:rgb(0%,0%,0%);stroke-opacity:1;stroke-miterlimit:10;" d="M 167.460938 171.710938 L 174.21875 154.679688 "/>
<path style="fill:none;stroke-width:1.2;stroke-linecap:butt;stroke-linejoin:miter;stroke:rgb(0%,0%,0%);stroke-opacity:1;stroke-miterlimit:10;" d="M 170.058594 150.5625 L 192.914062 152.023438 "/>
<path style="fill:none;stroke-width:1.2;stroke-linecap:butt;stroke-linejoin:miter;stroke:rgb(0%,0%,0%);stroke-opacity:1;stroke-miterlimit:10;" d="M 170.058594 150.5625 L 157.804688 131.214844 "/>
<path style="fill:none;stroke-width:1.2;stroke-linecap:butt;stroke-linejoin:miter;stroke:rgb(0%,0%,0%);stroke-opacity:1;stroke-miterlimit:10;" d="M 192.914062 152.023438 L 198.589844 174.210938 "/>
<path style="fill:none;stroke-width:1.2;stroke-linecap:butt;stroke-linejoin:miter;stroke:rgb(0%,0%,0%);stroke-opacity:1;stroke-miterlimit:10;" d="M 198.703125 152.90625 L 203.242188 170.65625 "/>
<path style="fill:none;stroke-width:1.2;stroke-linecap:butt;stroke-linejoin:miter;stroke:rgb(0%,0%,0%);stroke-opacity:1;stroke-miterlimit:10;" d="M 209.292969 136.015625 L 192.914062 152.023438 "/>
<path style="fill:none;stroke-width:1.2;stroke-linecap:butt;stroke-linejoin:miter;stroke:rgb(0%,0%,0%);stroke-opacity:1;stroke-miterlimit:10;" d="M 198.589844 174.210938 L 220.640625 180.390625 "/>
<path style="fill:none;stroke-width:1.2;stroke-linecap:butt;stroke-linejoin:miter;stroke:rgb(0%,0%,0%);stroke-opacity:1;stroke-miterlimit:10;" d="M 220.640625 180.390625 L 237.019531 164.382812 "/>
<path style="fill:none;stroke-width:1.2;stroke-linecap:butt;stroke-linejoin:miter;stroke:rgb(0%,0%,0%);stroke-opacity:1;stroke-miterlimit:10;" d="M 218.511719 174.9375 L 231.617188 162.128906 "/>
<path style="fill:none;stroke-width:1.2;stroke-linecap:butt;stroke-linejoin:miter;stroke:rgb(0%,0%,0%);stroke-opacity:1;stroke-miterlimit:10;" d="M 237.019531 164.382812 L 231.347656 142.195312 "/>
<path style="fill:none;stroke-width:1.2;stroke-linecap:butt;stroke-linejoin:miter;stroke:rgb(0%,0%,0%);stroke-opacity:1;stroke-miterlimit:10;" d="M 237.019531 164.382812 L 259.074219 170.5625 "/>
<path style="fill:none;stroke-width:1.2;stroke-linecap:butt;stroke-linejoin:miter;stroke:rgb(0%,0%,0%);stroke-opacity:1;stroke-miterlimit:10;" d="M 231.347656 142.195312 L 209.292969 136.015625 "/>
<path style="fill:none;stroke-width:1.2;stroke-linecap:butt;stroke-linejoin:miter;stroke:rgb(0%,0%,0%);stroke-opacity:1;stroke-miterlimit:10;" d="M 227.6875 146.765625 L 210.042969 141.820312 "/>
<path style="fill:none;stroke-width:1.2;stroke-linecap:butt;stroke-linejoin:miter;stroke:rgb(0%,0%,0%);stroke-opacity:1;stroke-miterlimit:10;" d="M 259.074219 170.5625 L 261.914062 181.65625 "/>
<path style="fill:none;stroke-width:1.2;stroke-linecap:butt;stroke-linejoin:miter;stroke:rgb(100%,0%,0%);stroke-opacity:1;stroke-miterlimit:10;" d="M 261.914062 181.65625 L 264.75 192.75 "/>
<path style=" stroke:none;fill-rule:nonzero;fill:rgb(100%,100%,100%);fill-opacity:1;" d="M 257.75 187.25 L 272.75 187.25 L 272.75 198.25 L 257.75 198.25 Z M 257.75 187.25 "/>
<g style="fill:rgb(100%,0%,0%);fill-opacity:1;">
  <use xlink:href="#glyph0-1" x="257.75" y="195.913086"/>
  <use xlink:href="#glyph0-2" x="265.091797" y="195.913086"/>
</g>
<path style="fill:none;stroke-width:1.2;stroke-linecap:butt;stroke-linejoin:miter;stroke:rgb(0%,0%,0%);stroke-opacity:1;stroke-miterlimit:10;" d="M 157.804688 131.214844 L 134.945312 129.753906 "/>
<path style="fill:none;stroke-width:1.2;stroke-linecap:butt;stroke-linejoin:miter;stroke:rgb(0%,0%,0%);stroke-opacity:1;stroke-miterlimit:10;" d="M 155.859375 125.691406 L 137.574219 124.523438 "/>
<path style="fill:none;stroke-width:1.2;stroke-linecap:butt;stroke-linejoin:miter;stroke:rgb(0%,0%,0%);stroke-opacity:1;stroke-miterlimit:10;" d="M 166.253906 109.925781 L 157.804688 131.214844 "/>
<path style="fill:none;stroke-width:1.2;stroke-linecap:butt;stroke-linejoin:miter;stroke:rgb(0%,0%,0%);stroke-opacity:1;stroke-miterlimit:10;" d="M 134.945312 129.753906 L 120.332031 147.386719 "/>
<path style="fill:none;stroke-width:1.2;stroke-linecap:butt;stroke-linejoin:miter;stroke:rgb(0%,0%,0%);stroke-opacity:1;stroke-miterlimit:10;" d="M 134.945312 129.753906 L 129.269531 107.566406 "/>
<path style="fill:none;stroke-width:1.2;stroke-linecap:butt;stroke-linejoin:miter;stroke:rgb(0%,0%,0%);stroke-opacity:1;stroke-miterlimit:10;" d="M 120.332031 147.386719 L 97.472656 145.929688 "/>
<path style="fill:none;stroke-width:1.2;stroke-linecap:butt;stroke-linejoin:miter;stroke:rgb(0%,0%,0%);stroke-opacity:1;stroke-miterlimit:10;" d="M 126.003906 169.578125 L 120.332031 147.386719 "/>
<path style="fill:none;stroke-width:1.2;stroke-linecap:butt;stroke-linejoin:miter;stroke:rgb(0%,0%,0%);stroke-opacity:1;stroke-miterlimit:10;" d="M 120.21875 168.695312 L 115.675781 150.941406 "/>
<path style="fill:none;stroke-width:1.2;stroke-linecap:butt;stroke-linejoin:miter;stroke:rgb(0%,0%,0%);stroke-opacity:1;stroke-miterlimit:10;" d="M 97.472656 145.929688 L 89.023438 167.214844 "/>
<path style="fill:none;stroke-width:1.2;stroke-linecap:butt;stroke-linejoin:miter;stroke:rgb(0%,0%,0%);stroke-opacity:1;stroke-miterlimit:10;" d="M 91.621094 146.070312 L 84.859375 163.097656 "/>
<path style="fill:none;stroke-width:1.2;stroke-linecap:butt;stroke-linejoin:miter;stroke:rgb(0%,0%,0%);stroke-opacity:1;stroke-miterlimit:10;" d="M 83.265625 127.964844 L 97.472656 145.929688 "/>
<path style="fill:none;stroke-width:1.2;stroke-linecap:butt;stroke-linejoin:miter;stroke:rgb(0%,0%,0%);stroke-opacity:1;stroke-miterlimit:10;" d="M 89.023438 167.214844 L 97.839844 174.523438 "/>
<path style="fill:none;stroke-width:1.2;stroke-linecap:butt;stroke-linejoin:miter;stroke:rgb(0%,0%,100%);stroke-opacity:1;stroke-miterlimit:10;" d="M 97.839844 174.523438 L 106.65625 181.832031 "/>
<path style="fill:none;stroke-width:1.2;stroke-linecap:butt;stroke-linejoin:miter;stroke:rgb(0%,0%,0%);stroke-opacity:1;stroke-miterlimit:10;" d="M 89.023438 167.214844 L 66.363281 170.539062 "/>
<path style="fill:none;stroke-width:1.2;stroke-linecap:butt;stroke-linejoin:miter;stroke:rgb(0%,0%,100%);stroke-opacity:1;stroke-miterlimit:10;" d="M 106.65625 181.832031 L 116.332031 175.703125 "/>
<path style="fill:none;stroke-width:1.2;stroke-linecap:butt;stroke-linejoin:miter;stroke:rgb(0%,0%,0%);stroke-opacity:1;stroke-miterlimit:10;" d="M 116.332031 175.703125 L 126.003906 169.578125 "/>
<path style="fill:none;stroke-width:1.2;stroke-linecap:butt;stroke-linejoin:miter;stroke:rgb(0%,0%,100%);stroke-opacity:1;stroke-miterlimit:10;" d="M 106.65625 181.832031 L 105.925781 193.261719 "/>
<path style="fill:none;stroke-width:1.2;stroke-linecap:butt;stroke-linejoin:miter;stroke:rgb(0%,0%,0%);stroke-opacity:1;stroke-miterlimit:10;" d="M 105.925781 193.261719 L 105.195312 204.6875 "/>
<path style=" stroke:none;fill-rule:nonzero;fill:rgb(100%,100%,100%);fill-opacity:1;" d="M 103.65625 176.332031 L 110.65625 176.332031 L 110.65625 187.332031 L 103.65625 187.332031 Z M 103.65625 176.332031 "/>
<g style="fill:rgb(0%,0%,100%);fill-opacity:1;">
  <use xlink:href="#glyph0-3" x="103.65625" y="184.995117"/>
</g>
<path style="fill:none;stroke-width:1.2;stroke-linecap:butt;stroke-linejoin:miter;stroke:rgb(0%,0%,0%);stroke-opacity:1;stroke-miterlimit:10;" d="M 66.363281 170.539062 L 52.152344 152.578125 "/>
<path style="fill:none;stroke-width:1.2;stroke-linecap:butt;stroke-linejoin:miter;stroke:rgb(0%,0%,0%);stroke-opacity:1;stroke-miterlimit:10;" d="M 69.167969 165.402344 L 57.800781 151.03125 "/>
<path style="fill:none;stroke-width:1.2;stroke-linecap:butt;stroke-linejoin:miter;stroke:rgb(0%,0%,0%);stroke-opacity:1;stroke-miterlimit:10;" d="M 66.363281 170.539062 L 57.910156 191.828125 "/>
<path style="fill:none;stroke-width:1.2;stroke-linecap:butt;stroke-linejoin:miter;stroke:rgb(0%,0%,0%);stroke-opacity:1;stroke-miterlimit:10;" d="M 52.152344 152.578125 L 60.605469 131.292969 "/>
<path style="fill:none;stroke-width:1.2;stroke-linecap:butt;stroke-linejoin:miter;stroke:rgb(0%,0%,0%);stroke-opacity:1;stroke-miterlimit:10;" d="M 60.605469 131.292969 L 83.265625 127.964844 "/>
<path style="fill:none;stroke-width:1.2;stroke-linecap:butt;stroke-linejoin:miter;stroke:rgb(0%,0%,0%);stroke-opacity:1;stroke-miterlimit:10;" d="M 63.652344 136.289062 L 81.78125 133.632812 "/>
<path style="fill:none;stroke-width:1.2;stroke-linecap:butt;stroke-linejoin:miter;stroke:rgb(0%,0%,0%);stroke-opacity:1;stroke-miterlimit:10;" d="M 57.910156 191.828125 L 46.582031 193.488281 "/>
<path style="fill:none;stroke-width:1.2;stroke-linecap:butt;stroke-linejoin:miter;stroke:rgb(100%,0%,0%);stroke-opacity:1;stroke-miterlimit:10;" d="M 46.582031 193.488281 L 35.25 195.152344 "/>
<path style=" stroke:none;fill-rule:nonzero;fill:rgb(100%,100%,100%);fill-opacity:1;" d="M 20.25 189.652344 L 35.25 189.652344 L 35.25 200.652344 L 20.25 200.652344 Z M 20.25 189.652344 "/>
<g style="fill:rgb(100%,0%,0%);fill-opacity:1;">
  <use xlink:href="#glyph0-2" x="20.25" y="198.31543"/>
  <use xlink:href="#glyph0-1" x="27.264648" y="198.31543"/>
</g>
<path style="fill:none;stroke-width:1.2;stroke-linecap:butt;stroke-linejoin:miter;stroke:rgb(0%,0%,0%);stroke-opacity:1;stroke-miterlimit:10;" d="M 130.265625 105.0625 L 119.621094 100.835938 "/>
<path style="fill:none;stroke-width:1.2;stroke-linecap:butt;stroke-linejoin:miter;stroke:rgb(100%,0%,0%);stroke-opacity:1;stroke-miterlimit:10;" d="M 119.621094 100.835938 L 108.976562 96.609375 "/>
<path style="fill:none;stroke-width:1.2;stroke-linecap:butt;stroke-linejoin:miter;stroke:rgb(0%,0%,0%);stroke-opacity:1;stroke-miterlimit:10;" d="M 128.277344 110.070312 L 117.632812 105.84375 "/>
<path style="fill:none;stroke-width:1.2;stroke-linecap:butt;stroke-linejoin:miter;stroke:rgb(100%,0%,0%);stroke-opacity:1;stroke-miterlimit:10;" d="M 117.632812 105.84375 L 106.988281 101.617188 "/>
<path style="fill:none;stroke-width:1.2;stroke-linecap:butt;stroke-linejoin:miter;stroke:rgb(0%,0%,0%);stroke-opacity:1;stroke-miterlimit:10;" d="M 129.269531 107.566406 L 138.945312 101.4375 "/>
<path style="fill:none;stroke-width:1.2;stroke-linecap:butt;stroke-linejoin:miter;stroke:rgb(0%,0%,100%);stroke-opacity:1;stroke-miterlimit:10;" d="M 138.945312 101.4375 L 148.621094 95.3125 "/>
<path style=" stroke:none;fill-rule:nonzero;fill:rgb(100%,100%,100%);fill-opacity:1;" d="M 99.984375 93.613281 L 107.984375 93.613281 L 107.984375 104.613281 L 99.984375 104.613281 Z M 99.984375 93.613281 "/>
<g style="fill:rgb(100%,0%,0%);fill-opacity:1;">
  <use xlink:href="#glyph0-1" x="99.984375" y="102.276367"/>
</g>
<path style="fill:none;stroke-width:1.2;stroke-linecap:butt;stroke-linejoin:miter;stroke:rgb(0%,0%,100%);stroke-opacity:1;stroke-miterlimit:10;" d="M 148.621094 95.3125 L 157.4375 102.621094 "/>
<path style="fill:none;stroke-width:1.2;stroke-linecap:butt;stroke-linejoin:miter;stroke:rgb(0%,0%,0%);stroke-opacity:1;stroke-miterlimit:10;" d="M 157.4375 102.621094 L 166.253906 109.925781 "/>
<path style=" stroke:none;fill-rule:nonzero;fill:rgb(100%,100%,100%);fill-opacity:1;" d="M 141.621094 89.8125 L 155.621094 89.8125 L 155.621094 100.8125 L 141.621094 100.8125 Z M 141.621094 89.8125 "/>
<g style="fill:rgb(0%,0%,100%);fill-opacity:1;">
  <use xlink:href="#glyph0-3" x="141.621094" y="98.475586"/>
  <use xlink:href="#glyph0-2" x="148.598633" y="98.475586"/>
</g>
<path style="fill:none;stroke-width:1.2;stroke-linecap:butt;stroke-linejoin:miter;stroke:rgb(0%,0%,0%);stroke-opacity:1;stroke-miterlimit:10;" d="M 166.921875 112.539062 L 178.015625 109.699219 "/>
<path style="fill:none;stroke-width:1.2;stroke-linecap:butt;stroke-linejoin:miter;stroke:rgb(100%,0%,0%);stroke-opacity:1;stroke-miterlimit:10;" d="M 178.015625 109.699219 L 189.109375 106.863281 "/>
<path style="fill:none;stroke-width:1.2;stroke-linecap:butt;stroke-linejoin:miter;stroke:rgb(0%,0%,0%);stroke-opacity:1;stroke-miterlimit:10;" d="M 165.585938 107.316406 L 176.679688 104.480469 "/>
<path style="fill:none;stroke-width:1.2;stroke-linecap:butt;stroke-linejoin:miter;stroke:rgb(100%,0%,0%);stroke-opacity:1;stroke-miterlimit:10;" d="M 176.679688 104.480469 L 187.773438 101.640625 "/>
<path style=" stroke:none;fill-rule:nonzero;fill:rgb(100%,100%,100%);fill-opacity:1;" d="M 184.441406 98.753906 L 192.441406 98.753906 L 192.441406 109.753906 L 184.441406 109.753906 Z M 184.441406 98.753906 "/>
<g style="fill:rgb(100%,0%,0%);fill-opacity:1;">
  <use xlink:href="#glyph0-1" x="184.441406" y="107.416992"/>
</g>
</g>
</svg>

<svg xmlns="http://www.w3.org/2000/svg" xmlns:xlink="http://www.w3.org/1999/xlink" width="300pt" height="300pt" viewBox="0 0 300 300"><defs><symbol overflow="visible"><path d="M.453 1.594v-7.938h4.5v7.938zm.5-.5h3.5v-6.938h-3.5zm0 0"/></symbol><symbol overflow="visible" id="a"><path d="M3.547-5.953c-.65 0-1.164.242-1.547.72-.375.48-.563 1.13-.563 1.952 0 .835.188 1.49.563 1.967.383.48.898.72 1.547.72.644 0 1.156-.24 1.53-.72.376-.476.564-1.132.564-1.968 0-.822-.187-1.474-.562-1.954-.375-.477-.887-.72-1.53-.72zm0-.734c.914 0 1.648.312 2.203.937.55.617.828 1.438.828 2.47 0 1.042-.277 1.87-.828 2.483-.555.617-1.29.922-2.203.922-.93 0-1.668-.305-2.22-.922C.774-1.41.5-2.237.5-3.28c0-1.033.273-1.853.828-2.47.55-.625 1.29-.938 2.22-.938zm0 0"/></symbol><symbol overflow="visible" id="b"><path d="M.89-6.563h.876v2.688H5v-2.688h.89V0H5v-3.125H1.766V0H.89zm0 0"/></symbol><symbol overflow="visible" id="c"><path d="M.89-6.563H2.08l2.906 5.485v-5.484h.86V0H4.656L1.75-5.484V0H.89zm0 0"/></symbol></defs><g><path fill="#fff" d="M0 0h300v300H0z"/><path d="M179.238 186.465l-8.816-7.305" stroke-width="1.2" stroke="#f00" stroke-miterlimit="10" fill="none"/><path d="M170.422 179.16l-8.817-7.308M198.59 174.21l-9.676 6.13" stroke-width="1.2" stroke="#000" stroke-miterlimit="10" fill="none"/><path d="M188.914 180.34l-9.676 6.125" stroke-width="1.2" stroke="#f00" stroke-miterlimit="10" fill="none"/><path d="M175.238 180.965h8v11h-8zm0 0" fill="#fff"/><use xlink:href="#a" x="175.238" y="189.628" fill="#f00"/><path d="M161.605 171.852l8.454-21.29M167.46 171.71l6.76-17.03M170.06 150.563l22.854 1.46M170.06 150.563l-12.255-19.348M192.914 152.023l5.676 22.188M198.703 152.906l4.54 17.75M209.293 136.016l-16.38 16.007M198.59 174.21l22.05 6.18M220.64 180.39l16.38-16.007M218.512 174.938l13.105-12.81M237.02 164.383l-5.672-22.188M237.02 164.383l22.054 6.18M231.348 142.195l-22.055-6.18M227.688 146.766l-17.645-4.946M259.074 170.563l2.84 11.093" stroke-width="1.2" stroke="#000" stroke-miterlimit="10" fill="none"/><path d="M261.914 181.656l2.836 11.094" stroke-width="1.2" stroke="#f00" stroke-miterlimit="10" fill="none"/><path d="M257.75 187.25h15v11h-15zm0 0" fill="#fff"/><g fill="#f00"><use xlink:href="#a" x="257.75" y="195.913"/><use xlink:href="#b" x="265.092" y="195.913"/></g><path d="M157.805 131.215l-22.86-1.46M155.86 125.69l-18.286-1.167M166.254 109.926l-8.45 21.29M134.945 129.754l-14.613 17.633M134.945 129.754l-5.675-22.188M120.332 147.387l-22.86-1.457M126.004 169.578l-5.672-22.19M120.22 168.695l-4.544-17.754M97.473 145.93l-8.45 21.285M91.62 146.07l-6.76 17.028M83.266 127.965l14.207 17.965M89.023 167.215l8.817 7.308" stroke-width="1.2" stroke="#000" stroke-miterlimit="10" fill="none"/><path d="M97.84 174.523l8.816 7.31" stroke-width="1.2" stroke="#00f" stroke-miterlimit="10" fill="none"/><path d="M89.023 167.215l-22.66 3.324" stroke-width="1.2" stroke="#000" stroke-miterlimit="10" fill="none"/><path d="M106.656 181.832l9.676-6.13" stroke-width="1.2" stroke="#00f" stroke-miterlimit="10" fill="none"/><path d="M116.332 175.703l9.672-6.125" stroke-width="1.2" stroke="#000" stroke-miterlimit="10" fill="none"/><path d="M106.656 181.832l-.73 11.43" stroke-width="1.2" stroke="#00f" stroke-miterlimit="10" fill="none"/><path d="M105.926 193.262l-.73 11.425" stroke-width="1.2" stroke="#000" stroke-miterlimit="10" fill="none"/><path d="M103.656 176.332h7v11h-7zm0 0" fill="#fff"/><use xlink:href="#c" x="103.656" y="184.995" fill="#00f"/><path d="M66.363 170.54l-14.21-17.962M69.168 165.402L57.8 151.032M66.363 170.54l-8.453 21.288M52.152 152.578l8.453-21.285M60.605 131.293l22.66-3.328M63.652 136.29l18.13-2.657M57.91 191.828l-11.328 1.66" stroke-width="1.2" stroke="#000" stroke-miterlimit="10" fill="none"/><path d="M46.582 193.488l-11.332 1.664" stroke-width="1.2" stroke="#f00" stroke-miterlimit="10" fill="none"/><path d="M20.25 189.652h15v11h-15zm0 0" fill="#fff"/><g fill="#f00"><use xlink:href="#b" x="20.25" y="198.315"/><use xlink:href="#a" x="27.265" y="198.315"/></g><path d="M130.266 105.063l-10.645-4.227" stroke-width="1.2" stroke="#000" stroke-miterlimit="10" fill="none"/><path d="M119.62 100.836l-10.643-4.227" stroke-width="1.2" stroke="#f00" stroke-miterlimit="10" fill="none"/><path d="M128.277 110.07l-10.644-4.226" stroke-width="1.2" stroke="#000" stroke-miterlimit="10" fill="none"/><path d="M117.633 105.844l-10.645-4.227" stroke-width="1.2" stroke="#f00" stroke-miterlimit="10" fill="none"/><path d="M129.27 107.566l9.675-6.13" stroke-width="1.2" stroke="#000" stroke-miterlimit="10" fill="none"/><path d="M138.945 101.438l9.676-6.126" stroke-width="1.2" stroke="#00f" stroke-miterlimit="10" fill="none"/><path d="M99.984 93.613h8v11h-8zm0 0" fill="#fff"/><use xlink:href="#a" x="99.984" y="102.276" fill="#f00"/><path d="M148.62 95.313l8.817 7.308" stroke-width="1.2" stroke="#00f" stroke-miterlimit="10" fill="none"/><path d="M157.438 102.62l8.816 7.306" stroke-width="1.2" stroke="#000" stroke-miterlimit="10" fill="none"/><path d="M141.62 89.813h14v11h-14zm0 0" fill="#fff"/><g fill="#00f"><use xlink:href="#c" x="141.621" y="98.476"/><use xlink:href="#b" x="148.599" y="98.476"/></g><path d="M166.922 112.54l11.094-2.84" stroke-width="1.2" stroke="#000" stroke-miterlimit="10" fill="none"/><path d="M178.016 109.7l11.093-2.837" stroke-width="1.2" stroke="#f00" stroke-miterlimit="10" fill="none"/><path d="M165.586 107.316l11.094-2.836" stroke-width="1.2" stroke="#000" stroke-miterlimit="10" fill="none"/><path d="M176.68 104.48l11.093-2.84" stroke-width="1.2" stroke="#f00" stroke-miterlimit="10" fill="none"/><path d="M184.44 98.754h8v11h-8zm0 0" fill="#fff"/><use xlink:href="#a" x="184.441" y="107.417" fill="#f00"/></g></svg>
